X: 31
T:Colonel Roger
M:2/2
L:1/8
R:Reel
D:Frankie Gavin, "Up and Away"
Z:Robert Greenway
K:G
(3DEF|G2dB cAFA|GABc dBcA|G2dB cAFA|G2FA G2 (3DEF|!
G2dB cAFA|GABc defg|afge fdcA|G2FA G2:|!
de|f2de fdcA|Gggf g2ag|f2de fdcA|G2FA G2de|!
f2de fdcA|Gggf g2ag|f2de fdcA|G2FA G2:|!
<end>
<start>
